X:122
T:My Pretty Mary
N:"Moderate" "collected by J. O'Neill"
B:O'Neill's 122
Z:Transcribed by henrik.norbeck@mailbox.swipnet.se
M:C
L:1/8
K:G
D|G2 Bc edcB|gfed B2 dcB|A2 ce agfe|""de""cd B2 BA|
G2 Bd gbaf|agdec B3 d|g2 de B2 dcA|G4- G2 z||
d|gf g/a/b/a/ gfed|Bdgd B3 B|A2 Bd g2 ba|""ga""fg e3 d|
ga b/a/g/f/ ef g/f/e/d/|BgBc A3 d|g2 de B2 dcA|G6 z||
